X: 1
T: Valssi Karjaalta
O: Finnish-American
Z: John Chambers <jc:trillian.mit.edu>
B: Pelimannisävelmiä v.1, Pelimannikilta ry, (Fazer 1971)
N: "Yleinen kansansãvelmã Uudeltamaalta. Bragen kokoelma."
M: 3/4
L: 1/8
K: D
|: "D"D2 DF AF | D2 DF AF | "G"G2 B2 B2 | B4 B2 \
| "A7"A2 Ac ec | A2 Ac ec | "D"f2 d2 d2 | d4 d2 :|
|: "D"f2 d2 d2 | d2 e2 f2 | "G"g2 gf ga | g3 fed \
| "A7"c2 A2 A2 | A2 c2 e2 |1 a2 a^g ab | a4 g2 :|2 e2 d2 c2 | "D"d6 |]
